X:1
T:Ife's March
C:Robin Beech
Z:In Memory of (Gadjet) Joan Ife Beech 18/8/1920 - 26/9/2002
R:march
M:4/4
L:1/8
K:D
de |:f2 fg fe dc |B2 Bc A3 F |G3 F GA Bc |d2 de f2 fg |a3 b ag fe |d2 dc A3 F |
G3 F GA Bc |d3 d D2 de ::fe fd ec dB |cB AG AF D2 |d3 c BA GA |d3 B AG FA |
Bc dB cd eA |fe dc Bd A2 |B3 A GA Bc |1d3 d D2 de :|2d3 d D4 |]
